svg/科技1.svg

<svg width="36" height="36" viewBox="0 0 36 36" fill="none" xmlns="http://www.w3.org/2000/svg"><rect x="-48" y="-9.5" width="132" height="87" rx="11.5" stroke="#FF8D28"/><rect width="36" height="36" rx="12" fill="#B9A5FF"/><path d="M17.8626 29.7984C17.711 29.7999 17.5588 29.7446 17.444 29.6321C17.2143 29.407 17.2104 29.0279 17.4355 28.7982L19.8364 26.3476C20.0615 26.1179 20.4405 26.114 20.6703 26.3391C20.9 26.5642 20.9039 26.9433 20.6788 27.173L18.2778 29.6236C18.1653 29.7384 18.0142 29.7968 17.8626 29.7984ZM27.0538 20.4173C26.9022 20.4189 26.75 20.3636 26.6352 20.251C26.4054 20.0259 26.4016 19.6469 26.6267 19.4171L28.9713 17.024C29.1964 16.7943 29.5754 16.7904 29.8052 17.0155C30.0349 17.2406 30.0388 17.6197 29.8137 17.8494L27.469 20.2425C27.3756 20.3762 27.2054 20.4158 27.0538 20.4173ZM20.2271 20.051C20.0755 20.0525 19.9233 19.9972 19.8085 19.8847L17.2239 17.3333C16.9942 17.1082 16.9903 16.7291 17.2154 16.4994C17.4405 16.2697 17.8195 16.2658 18.0492 16.4909L20.6338 19.0423C20.8635 19.2674 20.8674 19.6464 20.6423 19.8762C20.5298 19.991 20.3787 20.0494 20.2271 20.051ZM29.6076 29.2428C29.456 29.2443 29.3038 29.189 29.1889 29.0764L26.4705 26.4127C26.2408 26.1876 26.2369 25.8086 26.462 25.5788C26.6871 25.3491 27.0661 25.3452 27.2958 25.5703L30.0143 28.2341C30.244 28.4592 30.2478 28.8382 30.0228 29.0679C29.8911 29.164 29.7592 29.2412 29.6076 29.2428Z" fill="#A079FF" fill-opacity="0.736806"/><path d="M13.4802 40.1713C9.64429 40.1713 6.53906 37.0478 6.53906 33.2302C6.53906 29.4126 9.66255 26.2891 13.4802 26.2891C17.2978 26.2891 20.4212 29.4126 20.4212 33.2302C20.4212 37.0478 17.2978 40.1713 13.4802 40.1713ZM14.6126 18.9462C11.6718 18.9462 9.27897 16.5533 9.27897 13.6125C9.27897 10.6717 11.6718 8.27881 14.6126 8.27881C17.5535 8.27881 19.9463 10.6717 19.9463 13.6125C19.9463 16.5533 17.5535 18.9462 14.6126 18.9462ZM32.8787 36.3172C30.157 36.3172 27.9468 34.107 27.9468 31.3853C27.9468 28.6637 30.157 26.4535 32.8787 26.4535C35.6003 26.4535 37.8105 28.6637 37.8105 31.3853C37.8105 34.107 35.6003 36.3172 32.8787 36.3172ZM31.8923 18.9827C29.6091 18.9827 27.7459 17.1196 27.7459 14.8363C27.7459 12.5531 29.6091 10.6899 31.8923 10.6899C34.1756 10.6899 36.0387 12.5531 36.0387 14.8363C36.0387 17.1196 34.1938 18.9827 31.8923 18.9827Z" fill="#7954E2"/><circle cx="23.3857" cy="22.4639" r="4.90918" fill="#7954E2"/><defs><clipPath id="clip0_1970_14250"><rect width="36" height="36" rx="12" fill="white"/></clipPath></defs></svg>

<svg fill="none" viewBox="0 0 36 36"><rect width="132" height="87" x="-48" y="-9.5" stroke="#FF8D28" rx="11.5"/><rect width="36" height="36" fill="#B9A5FF" rx="12"/><path fill="#A079FF" fill-opacity=".737" d="M17.863 29.798a.6.6 0 0 1-.419-.166.595.595 0 0 1-.008-.834l2.4-2.45a.595.595 0 0 1 .834-.009c.23.225.234.604.009.834l-2.401 2.45a.6.6 0 0 1-.415.175m9.19-9.38a.59.59 0 0 1-.418-.167.595.595 0 0 1-.008-.834l2.344-2.393a.595.595 0 0 1 .834-.009c.23.226.234.605.009.834l-2.345 2.393c-.093.134-.264.174-.415.175m-6.826-.367a.6.6 0 0 1-.419-.166l-2.584-2.552a.595.595 0 0 1-.009-.834.595.595 0 0 1 .834-.008l2.585 2.551c.23.225.233.604.008.834a.6.6 0 0 1-.415.175m9.38 9.192a.6.6 0 0 1-.418-.167l-2.718-2.663a.595.595 0 0 1-.009-.834.595.595 0 0 1 .834-.009l2.718 2.664c.23.225.234.604.009.834-.132.096-.264.173-.415.175"/><path fill="#7954E2" d="M13.48 40.171c-3.836 0-6.94-3.123-6.94-6.94s3.123-6.942 6.94-6.942 6.941 3.124 6.941 6.941c0 3.818-3.123 6.941-6.94 6.941m1.133-21.225a5.34 5.34 0 0 1-5.334-5.334 5.34 5.34 0 0 1 5.334-5.333 5.34 5.34 0 0 1 5.333 5.334 5.34 5.34 0 0 1-5.333 5.333m18.266 17.371a4.935 4.935 0 0 1-4.932-4.932 4.935 4.935 0 0 1 4.932-4.932 4.935 4.935 0 0 1 4.932 4.932 4.935 4.935 0 0 1-4.932 4.932m-.987-17.334a4.155 4.155 0 0 1-4.146-4.147 4.155 4.155 0 0 1 4.146-4.146 4.155 4.155 0 0 1 4.147 4.146 4.143 4.143 0 0 1-4.147 4.147"/><circle cx="23.386" cy="22.464" r="4.909" fill="#7954E2"/></svg>
